X:99
T:The Wizard's Walk
C:Jay Ungar
S:Jean-Luc Poirier
R:reel
M:4/4
L:1/8
Z:robin.beech@mcgill.ca
K:G
e2 dc BAGF | GAFG E2 B2 | e3f gfef | gafg e4 |
a2 gf edcB | cdBc A2 E2 | A3B cBAB | cdBc A4 |]
BBfB BfBB | gccg ccgc | BBfB BfBB | gccg ccgc |
fBBB gccc | fBBB gccc | fB^cc ^ddee | ffgg aabb |:
egbe bgeg | ^dfbf bfdf | dfab afdB | ^ceae aeca |
^cege cege | Bege Bege | ^Aege Aege | cege fe^df :|
e2 dc BAGF | G2 e2 F2 ^d2 | e4 B2 G2  | E8 |]
